X: 201
T: VARIOUS: Súisin Bán [Set Dance]
T: Casadh an tSúgáin
C: C: Trad.; S: Jack Talty & Cormac Begley; Various
C: Set Leaders: Tania, Anton
Z: Anton Zille ed., Oleg Naumov arr.; Tommy McCarty at The Session
N: https://thesession.org/members/26966/sets/92417
R: Set Dance
M: 4/4
L: 1/8
Q: 1/2=82
K: Gmaj
|:(3GAB|"C"cEED E2 GE|"G"DE (3GAB "C"c3A|"G"BAGE "(D)"D2 EG|
"Am"A2 AB "D"(3ABA GA|"G"BAGE "(D)"DB,DE|1 "C"G2 "D"GF "G"G2:|2 "C"G2 "D"GF "G"GABd||
|:"C"e2 ed efge|"G"dB (3GAB "C"c3A|"G"BAGE "(D)"D2 EG|
"Am"A2 AB "D"ADGA|"G"BAGE "(D)"DB,DE|1 "C"G2 "D"GF "G"GABd:|2 "C"G2 "D"GF "G"G2||

